X:1
T:Title
%%score { ( 1 3 ) | ( 2 4 ) }
L:1/8
M:4/4
K:Eb
V:1 treble nm="Grand Piano"
V:3 treble 
V:2 bass 
V:4 bass 
V:1
 z4 z2[Q:1/4=100] E>G | B2 B=A B2 GB | [Ec]2 [Ec]A c2 [Ec][Ec] | [EB]2 [EB][EB] c2 BG | [DF]6 z2 | %5
 B2 B=A B2 GB |[M:9/8] [Ec]2 c c [Ee]2- [Ee][_Ge][Ge] | %7
[M:4/4] [Ge]2 [B,GB][B,EG] [B,DB]2 [B,DA][A,DF] |[M:3/4] [G,E]6 |[M:1/4] [B,GB][Ge] | %10
[M:4/4] [Ae]2 [Ad]>[G_d] [A=d]2 [Ad][Ac] | [Gc]2 [GB]>[_G=A] [=GB]2 [EG][EG] | %12
 [DB]2 [DA][DG] [DF]2 [DG]>[DA] | [EG]4 [GB]2 [EGB][Ge] | [Ae]2 [Ad]>[G_d] [A=d]2 [Ad][Ac] | %15
 [Gc]2 [GB]>[_G=A] [=GB]2 [EG][EG] | [DB]2 [DA][G,DG] [A,DF]2 [B,DG]>[A,DF] |[M:3/4] [G,E]6 |] %18
V:2
 z4 z2 [E,G,]>[E,B,E] | [E,G,E]2 [E,G,E][E,_G,E] [E,=G,E]2 [E,B,E][E,G,E] | %2
 [A,,A,]2 [C,A,][E,A,C] [A,E]2 [A,,A,][A,,A,] | [B,,G,]2 [B,,G,][B,,G,] [E,A,E]2 [E,G,E][E,B,E] | %4
 B,,2 D,F, B,2 [G,B,E][F,A,E] | [E,G,E]2 [E,G,E][E,_G,E] [E,=G,E]2 [E,B,E][E,G,E] | %6
[M:9/8] [A,,A,]2 [A,E] [E,A,E] [C,A,]2- [C,A,][C,=A,][=B,,A,] |[M:4/4] [B,,B,]2 E,E, B,,2 B,,B,, | %8
[M:3/4] E,6 |[M:1/4] E,[E,B,] |[M:4/4] [F,B,]2 [F,B,]>[=E,B,] [F,B,]2 [F,B,][D,B,] | %11
 [E,B,]2 [E,B,]>[E,C] [E,B,]2 [E,B,][E,B,] | [B,,B,]2 [B,,F,][B,,G,] [B,,A,]2 [B,,G,]>[B,,F,] | %13
 z2 G,>B, E2 E,[E,B,] | [F,B,]2 [F,B,]>[=E,B,] [F,B,]2 [D,B,][B,,B,] | %15
 [E,B,]2 [E,B,]>[E,C] [E,B,]2 [E,B,][E,B,] | [B,,B,]2 [B,,F,]B,, B,,2 B,,>B,, |[M:3/4] E,6 |] %18
V:3
 x8 | x8 | x8 | x8 | B,4 z A,GA | x8 |[M:9/8] x9 |[M:4/4] x8 |[M:3/4] x6 |[M:1/4] x2 |[M:4/4] x8 | %11
 x8 | x8 | x8 | x8 | x8 | x8 |[M:3/4] x6 |] %18
V:4
 x8 | x8 | x8 | x8 | x8 | x8 |[M:9/8] x9 |[M:4/4] x8 |[M:3/4] x6 |[M:1/4] x2 |[M:4/4] x8 | x8 | %12
 x8 | E,6 z2 | x8 | x8 | x8 |[M:3/4] x6 |] %18

